boundlessconnect/icons/lock.svg

<svg height="64" viewBox="0 0 52.363636 64" width="52.363636" xmlns="http://www.w3.org/2000/svg"><path d="m14.545455 29.0909h23.272727v-8.7273q0-4.8181-3.409091-8.2272-3.409091-3.4091-8.227273-3.4091-4.818182 0-8.227273 3.4091-3.40909 3.4091-3.40909 8.2272zm37.818181 4.3636v26.1819q0 1.8181-1.272727 3.0909-1.272727 1.2727-3.090909 1.2727h-43.6363636q-1.8181819 0-3.0909091-1.2727-1.2727273-1.2728-1.2727273-3.0909v-26.1819q0-1.8181 1.2727273-3.0909 1.2727272-1.2727 3.0909091-1.2727h1.4545454v-8.7273q0-8.3636 6.0000002-14.3636 6-6 14.363636-6 8.363637 0 14.363637 6 6 6 6 14.3636v8.7273h1.454545q1.818182 0 3.090909 1.2727 1.272727 1.2728 1.272727 3.0909z"/></svg>

<?xml version="1.0" encoding="UTF-8" standalone="no"?>
<svg
   xmlns:dc="http://purl.org/dc/elements/1.1/"
   xmlns:cc="http://creativecommons.org/ns#"
   xmlns:rdf="http://www.w3.org/1999/02/22-rdf-syntax-ns#"
   xmlns:svg="http://www.w3.org/2000/svg"
   xmlns="http://www.w3.org/2000/svg"
   xmlns:sodipodi="http://sodipodi.sourceforge.net/DTD/sodipodi-0.dtd"
   xmlns:inkscape="http://www.inkscape.org/namespaces/inkscape"
   width="52.363636"
   height="64"
   viewBox="0 0 52.363636 64"
   id="svg3363"
   version="1.1"
   inkscape:version="0.48.5 r10040"
   sodipodi:docname="lock.svg">
  <metadata
     id="metadata3371">
    <rdf:RDF>
      <cc:Work
         rdf:about="">
        <dc:format>image/svg+xml</dc:format>
        <dc:type
           rdf:resource="http://purl.org/dc/dcmitype/StillImage" />
      </cc:Work>
    </rdf:RDF>
  </metadata>
  <defs
     id="defs3369" />
  <sodipodi:namedview
     pagecolor="#ffffff"
     bordercolor="#666666"
     borderopacity="1"
     objecttolerance="10"
     gridtolerance="10"
     guidetolerance="10"
     inkscape:pageopacity="0"
     inkscape:pageshadow="2"
     inkscape:window-width="1362"
     inkscape:window-height="745"
     id="namedview3367"
     showgrid="false"
     fit-margin-top="0"
     fit-margin-left="0"
     fit-margin-right="0"
     fit-margin-bottom="0"
     inkscape:zoom="0.37249375"
     inkscape:cx="-414.626"
     inkscape:cy="245.17819"
     inkscape:window-x="2"
     inkscape:window-y="0"
     inkscape:window-maximized="1"
     inkscape:current-layer="svg3363" />
  <path
     d="m 14.545455,29.0909 h 23.272727 v -8.7273 q 0,-4.8181 -3.409091,-8.2272 Q 31,8.7273 26.181818,8.7273 q -4.818182,0 -8.227273,3.4091 -3.40909,3.4091 -3.40909,8.2272 v 8.7273 z m 37.818181,4.3636 v 26.1819 q 0,1.8181 -1.272727,3.0909 Q 49.818182,64 48,64 H 4.3636364 Q 2.5454545,64 1.2727273,62.7273 0,61.4545 0,59.6364 V 33.4545 Q 0,31.6364 1.2727273,30.3636 2.5454545,29.0909 4.3636364,29.0909 H 5.8181818 V 20.3636 Q 5.8181818,12 11.818182,6 q 6,-6 14.363636,-6 8.363637,0 14.363637,6 6,6 6,14.3636 v 8.7273 H 48 q 1.818182,0 3.090909,1.2727 1.272727,1.2728 1.272727,3.0909 z"
     id="path3365"
     inkscape:connector-curvature="0" />
</svg>
